communes/863.svg

<?xml version="1.0" encoding="UTF-8" standalone="no"?>
<svg
   xmlns:dc="http://purl.org/dc/elements/1.1/"
   xmlns:cc="http://creativecommons.org/ns#"
   xmlns:rdf="http://www.w3.org/1999/02/22-rdf-syntax-ns#"
   xmlns:svg="http://www.w3.org/2000/svg"
   xmlns="http://www.w3.org/2000/svg"
   xmlns:xlink="http://www.w3.org/1999/xlink"
   xmlns:sodipodi="http://sodipodi.sourceforge.net/DTD/sodipodi-0.dtd"
   xmlns:inkscape="http://www.inkscape.org/namespaces/inkscape"
   height="763"
   width="603"
   version="1.0"
   id="svg20"
   sodipodi:version="0.32"
   inkscape:version="0.46"
   sodipodi:docname="Burgistein-coat of arms.svg"
   sodipodi:docbase="C:\Users\Camilo\Documents\Escudos de Suiza"
   inkscape:output_extension="org.inkscape.output.svg.inkscape">
  <metadata
     id="metadata31">
    <rdf:RDF>
      <cc:Work
         rdf:about="">
        <dc:format>image/svg+xml</dc:format>
        <dc:type
           rdf:resource="http://purl.org/dc/dcmitype/StillImage" />
        <dc:date>05-AUG-2009</dc:date>
        <dc:creator>
          <cc:Agent>
            <dc:title>Juan G (aliman5040)</dc:title>
          </cc:Agent>
        </dc:creator>
        <cc:license
           rdf:resource="" />
        <dc:coverage />
        <dc:description />
        <dc:subject>
          <rdf:Bag />
        </dc:subject>
        <dc:language />
        <dc:title>Wappen Gemeinde Burgistein</dc:title>
      </cc:Work>
    </rdf:RDF>
  </metadata>
  <defs
     id="defs29">
    <inkscape:perspective
       sodipodi:type="inkscape:persp3d"
       inkscape:vp_x="0 : 381.5 : 1"
       inkscape:vp_y="0 : 1000 : 0"
       inkscape:vp_z="603 : 381.5 : 1"
       inkscape:persp3d-origin="301.5 : 254.33333 : 1"
       id="perspective5149" />
    <linearGradient
       id="linearGradient2893">
      <stop
         style="stop-color:#ffffff;stop-opacity:0.3137255;"
         offset="0"
         id="stop2895" />
      <stop
         id="stop2897"
         offset="0.19"
         style="stop-color:#ffffff;stop-opacity:0.25098041;" />
      <stop
         style="stop-color:#6b6b6b;stop-opacity:0.1254902;"
         offset="0.60000002"
         id="stop2901" />
      <stop
         style="stop-color:#000000;stop-opacity:0.1254902;"
         offset="1"
         id="stop2899" />
    </linearGradient>
    <radialGradient
       inkscape:collect="always"
       xlink:href="#linearGradient2893"
       id="radialGradient3236"
       gradientUnits="userSpaceOnUse"
       gradientTransform="matrix(1.215027,1.531577e-24,1.464684e-23,1.266667,-839.1924,-490.4894)"
       cx="858.04236"
       cy="579.93323"
       fx="858.04236"
       fy="579.93323"
       r="300" />
    <inkscape:perspective
       id="perspective5197"
       inkscape:persp3d-origin="372.04724 : 350.78739 : 1"
       inkscape:vp_z="744.09448 : 526.18109 : 1"
       inkscape:vp_y="0 : 1000 : 0"
       inkscape:vp_x="0 : 526.18109 : 1"
       sodipodi:type="inkscape:persp3d" />
    <inkscape:perspective
       id="perspective8046"
       inkscape:persp3d-origin="372.04724 : 350.78739 : 1"
       inkscape:vp_z="744.09448 : 526.18109 : 1"
       inkscape:vp_y="0 : 1000 : 0"
       inkscape:vp_x="0 : 526.18109 : 1"
       sodipodi:type="inkscape:persp3d" />
    <inkscape:perspective
       id="perspective9383"
       inkscape:persp3d-origin="372.04724 : 350.78739 : 1"
       inkscape:vp_z="744.09448 : 526.18109 : 1"
       inkscape:vp_y="0 : 1000 : 0"
       inkscape:vp_x="0 : 526.18109 : 1"
       sodipodi:type="inkscape:persp3d" />
    <inkscape:perspective
       id="perspective9513"
       inkscape:persp3d-origin="372.04724 : 350.78739 : 1"
       inkscape:vp_z="744.09448 : 526.18109 : 1"
       inkscape:vp_y="0 : 1000 : 0"
       inkscape:vp_x="0 : 526.18109 : 1"
       sodipodi:type="inkscape:persp3d" />
    <inkscape:perspective
       id="perspective9597"
       inkscape:persp3d-origin="372.04724 : 350.78739 : 1"
       inkscape:vp_z="744.09448 : 526.18109 : 1"
       inkscape:vp_y="0 : 1000 : 0"
       inkscape:vp_x="0 : 526.18109 : 1"
       sodipodi:type="inkscape:persp3d" />
    <inkscape:perspective
       id="perspective9760"
       inkscape:persp3d-origin="372.04724 : 350.78739 : 1"
       inkscape:vp_z="744.09448 : 526.18109 : 1"
       inkscape:vp_y="0 : 1000 : 0"
       inkscape:vp_x="0 : 526.18109 : 1"
       sodipodi:type="inkscape:persp3d" />
    <inkscape:perspective
       id="perspective9857"
       inkscape:persp3d-origin="372.04724 : 350.78739 : 1"
       inkscape:vp_z="744.09448 : 526.18109 : 1"
       inkscape:vp_y="0 : 1000 : 0"
       inkscape:vp_x="0 : 526.18109 : 1"
       sodipodi:type="inkscape:persp3d" />
    <inkscape:perspective
       id="perspective5219"
       inkscape:persp3d-origin="372.04724 : 350.78739 : 1"
       inkscape:vp_z="744.09448 : 526.18109 : 1"
       inkscape:vp_y="0 : 1000 : 0"
       inkscape:vp_x="0 : 526.18109 : 1"
       sodipodi:type="inkscape:persp3d" />
    <inkscape:perspective
       id="perspective5188"
       inkscape:persp3d-origin="372.04724 : 350.78739 : 1"
       inkscape:vp_z="744.09448 : 526.18109 : 1"
       inkscape:vp_y="0 : 1000 : 0"
       inkscape:vp_x="0 : 526.18109 : 1"
       sodipodi:type="inkscape:persp3d" />
    <inkscape:perspective
       id="perspective6860"
       inkscape:persp3d-origin="372.04724 : 350.78739 : 1"
       inkscape:vp_z="744.09448 : 526.18109 : 1"
       inkscape:vp_y="0 : 1000 : 0"
       inkscape:vp_x="0 : 526.18109 : 1"
       sodipodi:type="inkscape:persp3d" />
    <inkscape:perspective
       id="perspective8627"
       inkscape:persp3d-origin="372.04724 : 350.78739 : 1"
       inkscape:vp_z="744.09448 : 526.18109 : 1"
       inkscape:vp_y="0 : 1000 : 0"
       inkscape:vp_x="0 : 526.18109 : 1"
       sodipodi:type="inkscape:persp3d" />
    <inkscape:perspective
       id="perspective27150"
       inkscape:persp3d-origin="372.04724 : 350.78739 : 1"
       inkscape:vp_z="744.09448 : 526.18109 : 1"
       inkscape:vp_y="0 : 1000 : 0"
       inkscape:vp_x="0 : 526.18109 : 1"
       sodipodi:type="inkscape:persp3d" />
    <inkscape:perspective
       id="perspective28351"
       inkscape:persp3d-origin="372.04724 : 350.78739 : 1"
       inkscape:vp_z="744.09448 : 526.18109 : 1"
       inkscape:vp_y="0 : 1000 : 0"
       inkscape:vp_x="0 : 526.18109 : 1"
       sodipodi:type="inkscape:persp3d" />
    <inkscape:perspective
       id="perspective3273"
       inkscape:persp3d-origin="372.04724 : 350.78739 : 1"
       inkscape:vp_z="744.09448 : 526.18109 : 1"
       inkscape:vp_y="0 : 1000 : 0"
       inkscape:vp_x="0 : 526.18109 : 1"
       sodipodi:type="inkscape:persp3d" />
    <inkscape:perspective
       id="perspective3393"
       inkscape:persp3d-origin="372.04724 : 350.78739 : 1"
       inkscape:vp_z="744.09448 : 526.18109 : 1"
       inkscape:vp_y="0 : 1000 : 0"
       inkscape:vp_x="0 : 526.18109 : 1"
       sodipodi:type="inkscape:persp3d" />
    <inkscape:perspective
       id="perspective6925"
       inkscape:persp3d-origin="372.04724 : 350.78739 : 1"
       inkscape:vp_z="744.09448 : 526.18109 : 1"
       inkscape:vp_y="0 : 1000 : 0"
       inkscape:vp_x="0 : 526.18109 : 1"
       sodipodi:type="inkscape:persp3d" />
    <inkscape:perspective
       id="perspective9350"
       inkscape:persp3d-origin="372.04724 : 350.78739 : 1"
       inkscape:vp_z="744.09448 : 526.18109 : 1"
       inkscape:vp_y="0 : 1000 : 0"
       inkscape:vp_x="0 : 526.18109 : 1"
       sodipodi:type="inkscape:persp3d" />
  </defs>
  <sodipodi:namedview
     inkscape:window-height="720"
     inkscape:window-width="1280"
     inkscape:pageshadow="2"
     inkscape:pageopacity="0.0"
     guidetolerance="10.0"
     gridtolerance="10.0"
     objecttolerance="10.0"
     borderopacity="1.0"
     bordercolor="#666666"
     pagecolor="#ffffff"
     id="base"
     inkscape:zoom="2.3155441"
     inkscape:cx="240.89627"
     inkscape:cy="656.57199"
     inkscape:window-x="-8"
     inkscape:window-y="-8"
     inkscape:current-layer="layer2"
     showgrid="true"
     showguides="true"
     inkscape:guide-bbox="true">
    <inkscape:grid
       type="xygrid"
       id="grid5151" />
  </sodipodi:namedview>
  <g
     inkscape:groupmode="layer"
     id="layer1"
     inkscape:label="Fond écu"
     style="display:inline"
     sodipodi:insensitive="true">
    <path
       id="path1899"
       d="M 1.5,1.49998 L 1.5,460.3679 C 1.5,626.6785 135.81456,761.5 301.49999,761.5 C 467.18543,761.5 601.5,626.6785 601.5,460.3679 L 601.5,1.49998 L 1.5,1.49998 z"
       style="fill:#000000;fill-opacity:1;stroke:#000000;stroke-opacity:1" />
  </g>
  <g
     inkscape:groupmode="layer"
     id="layer2"
     inkscape:label="Meubles"
     style="display:inline"
     sodipodi:insensitive="true">
    <path
       d=""
       style="fill:none;fill-opacity:1;fill-rule:evenodd;stroke:#000000;stroke-width:4.27536249;stroke-miterlimit:4;stroke-dasharray:none;stroke-opacity:1"
       id="path5257"
       sodipodi:nodetypes="cc" />
    <path
       style="fill:#ffffff;fill-opacity:1;fill-rule:evenodd;stroke:#000000;stroke-width:3.97767472;stroke-miterlimit:4;stroke-dasharray:none;stroke-opacity:1"
       d="M 601.5,2 L 80.8125,663.78125 C 31.87804,610.19685 2,538.7954 2,460.375 L 2.875,2 L 601.5,2 z"
       id="path6937"
       sodipodi:nodetypes="ccccc" />
    <g
       id="g10349"
       transform="matrix(4.0838279,0,0,4.0838279,-2538.1528,-2331.1766)">
      <path
         sodipodi:nodetypes="ccsc"
         id="path9360"
         d="M 647,597 C 638.60989,592.12766 628.16383,597.30181 631,587 C 627,587 624.68905,593.6703 631,595 C 636.17513,596.09039 641.77849,595.21511 647,597 z"
         style="opacity:1;fill:#e20909;fill-opacity:1;fill-rule:evenodd;stroke:#000000;stroke-width:1;stroke-miterlimit:4;stroke-dasharray:none;stroke-opacity:1" />
      <path
         sodipodi:nodetypes="cccc"
         id="path9370"
         d="M 674,587 C 674,583 670,579 667,576 C 665.10994,579.33333 664.24655,582.66667 665,586 C 669.50267,589.30165 672.88653,593.26784 674,587 z"
         style="opacity:1;fill:#e20909;fill-opacity:1;fill-rule:evenodd;stroke:#000000;stroke-width:1;stroke-miterlimit:4;stroke-dasharray:none;stroke-opacity:1" />
      <path
         style="opacity:1;fill:#e20909;fill-opacity:1;fill-rule:evenodd;stroke:#000000;stroke-width:1;stroke-miterlimit:4;stroke-dasharray:none;stroke-opacity:1"
         d="M 740,603 C 746,596 744,590 738,588 C 741,586 741.9987,583.27468 741,579 C 737.85048,585.76092 729.72807,587.52121 722.00985,588 C 723.55337,585.34778 723.87249,582.99704 723.20649,580.88888 C 718.05846,586.28043 712.71059,590.50574 704.64098,585.92096 C 706.38924,583.31036 706.20802,581.13913 704.92506,579.21877 C 700.04283,585.02862 694.62998,585.68906 686,585 C 680.28156,576.46322 670.95892,588.6832 680.28156,588.70664 C 682.80165,590.27549 687.62761,593.60401 699.87102,591.15532 C 707.21707,594.82835 713.33878,596.05269 717.35234,592.27874 C 725.18664,597.53457 739.84498,585.53644 740,603 z"
         id="path9368"
         sodipodi:nodetypes="cccccccccccc" />
      <path
         sodipodi:nodetypes="cccccccccccc"
         id="path9366"
         d="M 719,625 C 728.05766,622.9173 727.95339,618.08602 727,613 C 733.75333,611.84622 734.16331,607.30932 735,603 C 729.36109,607.88182 722.23916,605.71932 715,603 C 717.49315,601.21088 718.74566,599.19618 719,597 C 712.0973,599.81492 705.48915,601.48385 700,594 C 702.66296,592.33259 703.38548,590.2771 703,588 C 696.1688,591.30534 687.59362,592.15791 680,588 C 676,580 667,590 677,592 C 682.16461,594.73723 687.32921,598.5109 692.49382,598 C 697.51512,605.50153 703.17065,606.18501 709,605 C 714,613 726,609 719,625 z"
         style="opacity:1;fill:#e20909;fill-opacity:1;fill-rule:evenodd;stroke:#000000;stroke-width:1;stroke-miterlimit:4;stroke-dasharray:none;stroke-opacity:1" />
      <path
         sodipodi:nodetypes="cssccccccccccsscc"
         id="path9358"
         d="M 663,628 C 657,623 648.9804,620.11504 645,614 C 641.15049,608.08604 632,611.22766 632,616 C 632,639 625,643 630,647 C 635,650 638,641 642,644 C 638,641 635,650 630,647 L 627.23802,658 L 633,656 L 634,647 L 633,656 L 632.49623,660 C 643,654 643,654.56216 642,644 L 645,645.58373 C 648.62893,640.13783 639.58615,639.4864 640,628 C 640.27769,620.29282 641.88595,622.33388 644,628 C 646.43995,634.53961 651.06599,640.52806 656,646 C 659.51074,640.81907 662.74552,635.44616 663,628 z"
         style="opacity:1;fill:#e20909;fill-opacity:1;fill-rule:evenodd;stroke:#000000;stroke-width:1;stroke-miterlimit:4;stroke-dasharray:none;stroke-opacity:1" />
      <path
         sodipodi:nodetypes="csccccccsccsccccccccccccccccccccccccsscccccccccccsscccccc"
         id="path9356"
         d="M 720.68483,632.78293 C 712.68483,631.78293 695.31682,636.95741 696,623 C 696.2931,617.0119 691.94425,611 687,605 C 679,606 675,604 671,600 C 675,604 679,606 687,605 L 692,604 C 686,600 681,596 674,595 C 681,596 686,600 692,604 C 685.95398,598.5616 681,589 673,592 C 672.0404,592.35985 671.07324,592.33641 670,593 L 673,592 C 676,591 667.54396,586.41759 664,585 C 659,583 659.29122,583.03885 656,586 C 649,583 640.18463,579.41445 640,586 C 636.7525,585.84549 635.85477,587.90253 635,590 C 640.43991,590.5643 646.41951,590.46555 647,597 C 643.10118,599.86289 639.03588,598.56355 635,598 C 636,604 646,608 649,602 C 656.74661,602.69656 659,613 666,613 C 671,613 672,611 675,609 C 672,611 671,613 666,613 C 666.33991,616.66338 666.65002,620.34166 665,625 L 670,620 L 665,625 C 662.362,629.80382 651.06624,638.80125 660,638 L 668,630 L 660,638 C 653.25142,647.25928 650.41546,656.07257 658,651 L 664,642 L 658,651 C 655.77871,655.34076 653.6664,660.82023 660,659 L 665,650 L 660,659 C 660,659 661,661 661,661 L 670,658 L 661,661 C 655.33462,662.82882 651,664 645,663 C 640.07493,662.17916 631,667 633,674 C 638.30575,692.57011 629.22023,701.47518 640,703 C 644.28617,701.32357 645.5516,697.8983 646,694 C 645.3777,696.2997 645.12669,701.19276 640,703 L 648,712 L 649,706 L 644,700 L 649,706 L 652.1217,709.91645 C 657.1217,696.91645 658,697 646,694 L 648,694.46017 L 653,691 C 639.07977,690.70595 643.14532,683.24428 642,678 C 640.49657,671.11601 647.01838,673.66871 650,674 C 659,675 671.20174,679.74683 676,671 L 677,669 L 680,663 L 677,669 C 683,670 689.28179,663.18182 695.95313,663.88121 L 720.68483,632.78293 z"
         style="opacity:1;fill:#e20909;fill-opacity:1;fill-rule:evenodd;stroke:#000000;stroke-width:1;stroke-miterlimit:4;stroke-dasharray:none;stroke-opacity:1" />
      <path
         sodipodi:nodetypes="ccccc"
         id="path9362"
         d="M 656,588 L 657.48716,588.64911 C 654.55039,594.54601 662.53605,596.47323 664,591.51415 L 667.40619,592 C 663.60412,591.33763 659.80206,589.72613 656,588 z"
         style="opacity:1;fill:#000000;fill-opacity:1;fill-rule:evenodd;stroke:#000000;stroke-width:1;stroke-miterlimit:4;stroke-dasharray:none;stroke-opacity:1" />
      <path
         d="M 659,591.5 A 0.5,0.5 0 1 1 658,591.5 A 0.5,0.5 0 1 1 659,591.5 z"
         sodipodi:ry="0.5"
         sodipodi:rx="0.5"
         sodipodi:cy="591.5"
         sodipodi:cx="658.5"
         id="path9364"
         style="opacity:1;fill:#ffffff;fill-opacity:1;fill-rule:evenodd;stroke:#ffffff;stroke-width:1;stroke-miterlimit:4;stroke-dasharray:none;stroke-opacity:1"
         sodipodi:type="arc" />
    </g>
  </g>
  <g
     inkscape:groupmode="layer"
     id="layer3"
     inkscape:label="Reflet final"
     style="display:inline"
     sodipodi:insensitive="true">
    <path
       style="fill:url(#radialGradient3236);fill-opacity:1"
       d="M 1.5,1.5 L 1.5,460.3679 C 1.5,626.67854 135.81454,761.5 301.49993,761.5 C 467.1854,761.5 601.5,626.67854 601.5,460.3679 L 601.5,1.5 L 1.5,1.5 z "
       id="path2346" />
  </g>
  <g
     inkscape:groupmode="layer"
     id="layer4"
     inkscape:label="Contour final"
     style="display:inline"
     sodipodi:insensitive="true">
    <path
       style="fill:none;fill-opacity:1;stroke:#000000;stroke-width:3;stroke-miterlimit:4;stroke-dasharray:none;stroke-opacity:1"
       d="M 1.5,1.5 L 1.5,460.36794 C 1.5,626.67854 135.81454,761.5 301.49993,761.5 C 467.1854,761.5 601.5,626.67854 601.5,460.36794 L 601.5,1.5 L 1.5,1.5 z"
       id="path3239" />
  </g>
</svg>

<?xml version="1.0" encoding="UTF-8"?>
<svg version="1.0" viewBox="0 0 603 763" xmlns="http://www.w3.org/2000/svg" xmlns:cc="http://creativecommons.org/ns#" xmlns:dc="http://purl.org/dc/elements/1.1/" xmlns:rdf="http://www.w3.org/1999/02/22-rdf-syntax-ns#" xmlns:xlink="http://www.w3.org/1999/xlink">
<metadata>
<rdf:RDF>
<cc:Work rdf:about="">
<dc:format>image/svg+xml</dc:format>
<dc:type rdf:resource="http://purl.org/dc/dcmitype/StillImage"/>
<dc:date>05-AUG-2009</dc:date>
<dc:creator>
<cc:Agent>
<dc:title>Juan G (aliman5040)</dc:title>
</cc:Agent>
</dc:creator>
<cc:license rdf:resource=""/>
<dc:coverage/>
<dc:description/>
<dc:subject>
<rdf:Bag/>
</dc:subject>
<dc:language/>
<dc:title>Wappen Gemeinde Burgistein</dc:title>
</cc:Work>
</rdf:RDF>
</metadata>
<defs>
<radialGradient id="a" cx="858.04" cy="579.93" r="300" gradientTransform="matrix(1.215 1.5316e-24 1.4647e-23 1.2667 -839.19 -490.49)" gradientUnits="userSpaceOnUse">
<stop stop-color="#fff" stop-opacity=".31373" offset="0"/>
<stop stop-color="#fff" stop-opacity=".25098" offset=".19"/>
<stop stop-color="#6b6b6b" stop-opacity=".12549" offset=".6"/>
<stop stop-opacity=".12549" offset="1"/>
</radialGradient>
</defs>
<g>
<path d="m1.5 1.5v458.87c0 166.31 134.31 301.13 300 301.13 165.69 0 300-134.82 300-301.13v-458.87h-600z" stroke="#000"/>
<path d="m601.5 2-520.69 661.78c-48.934-53.584-78.812-124.99-78.812-203.41l0.875-458.38h598.62z" fill="#fff" fill-rule="evenodd" stroke="#000" stroke-width="3.9777"/>
<g transform="matrix(4.0838 0 0 4.0838 -2538.2 -2331.2)" fill-rule="evenodd">
<path d="m647 597c-8.3901-4.8723-18.836 0.30181-16-10-4 0-6.311 6.6703 0 8 5.1751 1.0904 10.778 0.21511 16 2z" fill="#e20909" stroke="#000"/>
<path d="m674 587c0-4-4-8-7-11-1.8901 3.3333-2.7534 6.6667-2 10 4.5027 3.3016 7.8865 7.2678 9 1z" fill="#e20909" stroke="#000"/>
<path d="m740 603c6-7 4-13-2-15 3-2 3.9987-4.7253 3-9-3.1495 6.7609-11.272 8.5212-18.99 9 1.5435-2.6522 1.8626-5.003 1.1966-7.1111-5.148 5.3916-10.496 9.6169-18.566 5.0321 1.7483-2.6106 1.567-4.7818 0.28408-6.7022-4.8822 5.8098-10.295 6.4703-18.925 5.7812-5.7184-8.5368-15.041 3.6832-5.7184 3.7066 2.5201 1.5688 7.346 4.8974 19.589 2.4487 7.346 3.673 13.468 4.8974 17.481 1.1234 7.8343 5.2558 22.493-6.7423 22.648 10.721z" fill="#e20909" stroke="#000"/>
<path d="m719 625c9.0577-2.0827 8.9534-6.914 8-12 6.7533-1.1538 7.1633-5.6907 8-10-5.6389 4.8818-12.761 2.7193-20 0 2.4932-1.7891 3.7457-3.8038 4-6-6.9027 2.8149-13.511 4.4838-19-3 2.663-1.6674 3.3855-3.7229 3-6-6.8312 3.3053-15.406 4.1579-23 0-4-8-13 2-3 4 5.1646 2.7372 10.329 6.5109 15.494 6 5.0213 7.5015 10.677 8.185 16.506 7 5 8 17 4 10 20z" fill="#e20909" stroke="#000"/>
<path d="m663 628c-6-5-14.02-7.885-18-14-3.8495-5.914-13-2.7723-13 2 0 23-7 27-2 31 5 3 8-6 12-3-4-3-7 6-12 3l-2.762 11 5.762-2 1-9-1 9-0.50377 4c10.504-6 10.504-5.4378 9.5038-16l3 1.5837c3.6289-5.4459-5.4138-6.0973-5-17.584 0.27769-7.7072 1.886-5.6661 4 0 2.44 6.5396 7.066 12.528 12 18 3.5107-5.1809 6.7455-10.554 7-18z" fill="#e20909" stroke="#000"/>
<path d="m720.68 632.78c-8-1-25.368 4.1745-24.685-9.7829 0.2931-5.9881-4.0558-12-9-18-8 1-12-1-16-5 4 4 8 6 16 5l5-1c-6-4-11-8-18-9 7 1 12 5 18 9-6.046-5.4384-11-15-19-12-0.9596 0.35985-1.9268 0.33641-3 1l3-1c3-1-5.456-5.5824-9-7-5-2-4.7088-1.9612-8 1-7-3-15.815-6.5856-16 0-3.2475-0.15451-4.1452 1.9025-5 4 5.4399 0.5643 11.42 0.46555 12 7-3.8988 2.8629-7.9641 1.5636-12 1 1 6 11 10 14 4 7.7466 0.69656 10 11 17 11 5 0 6-2 9-4-3 2-4 4-9 4 0.33991 3.6634 0.65002 7.3417-1 12l5-5-5 5c-2.638 4.8038-13.934 13.801-5 13l8-8-8 8c-6.7486 9.2593-9.5845 18.073-2 13l6-9-6 9c-2.2213 4.3408-4.3336 9.8202 2 8l5-9-5 9 1 2 9-3-9 3c-5.6654 1.8288-10 3-16 2-4.9251-0.82084-14 4-12 11 5.3058 18.57-3.7798 27.475 7 29 4.2862-1.6764 5.5516-5.1017 6-9-0.6223 2.2997-0.87331 7.1928-6 9l8 9 1-6-5-6 5 6 3.1217 3.9164c5-13 5.8783-12.916-6.1217-15.916l2 0.46017 5-3.4602c-13.92-0.29405-9.8547-7.7557-11-13-1.5034-6.884 5.0184-4.3313 8-4 9 1 21.202 5.7468 26-3l4-8-3 6c6 1 12.282-5.8182 18.953-5.1188l24.732-31.098z" fill="#e20909" stroke="#000"/>
<path d="m656 588 1.4872 0.64911c-2.9368 5.8969 5.0489 7.8241 6.5128 2.865l3.4062 0.48585c-3.8021-0.66237-7.6041-2.2739-11.406-4z" stroke="#000"/>
<path d="m659 591.5a0.5 0.5 0 1 1-1 0 0.5 0.5 0 1 1 1 0z" fill="#fff" stroke="#fff"/>
</g>
<path d="m1.5 1.5v458.87c0 166.31 134.31 301.13 300 301.13 165.69 0 300-134.82 300-301.13v-458.87h-600z" fill="url(#a)"/>
<path d="m1.5 1.5v458.87c0 166.31 134.31 301.13 300 301.13 165.69 0 300-134.82 300-301.13v-458.87h-600z" fill="none" stroke="#000" stroke-width="3"/>
</g>
</svg>
